logos/cloudflare-workers-icon.svg

<?xml version="1.0" encoding="UTF-8"?>
<svg width="256px" height="231px" viewBox="0 0 256 231" version="1.1" xmlns="http://www.w3.org/2000/svg" preserveAspectRatio="xMidYMid">
    <title>CloudFrame Workers</title>
    <defs>
        <linearGradient x1="50%" y1="100%" x2="25.7%" y2="8.7%" id="cfWorkersLinearGradient-1">
            <stop stop-color="#EB6F07" offset="0%"></stop>
            <stop stop-color="#FAB743" offset="100%"></stop>
        </linearGradient>
        <linearGradient x1="81%" y1="83.7%" x2="40.5%" y2="29.5%" id="cfWorkersLinearGradient-2">
            <stop stop-color="#D96504" offset="0%"></stop>
            <stop stop-color="#D96504" stop-opacity="0" offset="100%"></stop>
        </linearGradient>
        <linearGradient x1="42%" y1="8.7%" x2="84%" y2="79.9%" id="cfWorkersLinearGradient-3">
            <stop stop-color="#EB6F07" offset="0%"></stop>
            <stop stop-color="#EB720A" stop-opacity="0" offset="100%"></stop>
        </linearGradient>
        <linearGradient x1="50%" y1="100%" x2="25.7%" y2="8.7%" id="cfWorkersLinearGradient-4">
            <stop stop-color="#EE6F05" offset="0%"></stop>
            <stop stop-color="#FAB743" offset="100%"></stop>
        </linearGradient>
        <linearGradient x1="-33.2%" y1="100%" x2="91.7%" y2="0%" id="cfWorkersLinearGradient-5">
            <stop stop-color="#D96504" stop-opacity="0.8" offset="0%"></stop>
            <stop stop-color="#D96504" stop-opacity="0.2" offset="49.8%"></stop>
            <stop stop-color="#D96504" stop-opacity="0" offset="100%"></stop>
        </linearGradient>
        <linearGradient x1="50%" y1="100%" x2="25.7%" y2="8.7%" id="cfWorkersLinearGradient-6">
            <stop stop-color="#FFA95F" offset="0%"></stop>
            <stop stop-color="#FFEBC8" offset="100%"></stop>
        </linearGradient>
        <linearGradient x1="8.1%" y1="1.1%" x2="96.5%" y2="48.8%" id="cfWorkersLinearGradient-7">
            <stop stop-color="#FFFFFF" stop-opacity="0.5" offset="0%"></stop>
            <stop stop-color="#FFFFFF" stop-opacity="0.1" offset="100%"></stop>
        </linearGradient>
        <linearGradient x1="-13.7%" y1="104.2%" x2="100%" y2="46.2%" id="cfWorkersLinearGradient-8">
            <stop stop-color="#FFFFFF" stop-opacity="0.5" offset="0%"></stop>
            <stop stop-color="#FFFFFF" stop-opacity="0.1" offset="100%"></stop>
        </linearGradient>
    </defs>
    <g>
        <path d="M65.820799,3.32378893 L95.981106,57.7354448 L68.2828649,107.592279 C65.5870161,112.433115 65.5870161,118.324009 68.2828649,123.164845 L95.981106,173.144783 L65.820799,227.556439 C60.1456908,224.742882 55.433019,220.308687 52.2794367,214.815248 L4.26915217,131.412766 C-1.42305072,121.503054 -1.42305072,109.315622 4.26915217,99.4059097 L52.2794367,16.0034282 C55.4425502,10.5327862 60.1542813,6.1208924 65.820799,3.32378893 Z" fill="url(#cfWorkersLinearGradient-1)"></path>
        <path d="M68.2828649,107.65383 C65.609809,112.478677 65.609809,118.339998 68.2828649,123.164845 L95.981106,173.144783 L65.820799,227.556439 C60.1456908,224.742882 55.433019,220.308687 52.2794367,214.815248 L4.26915217,131.412766 C0.452950062,124.82674 21.8113715,116.948129 68.2828649,107.715382 L68.2828649,107.65383 Z" fill="url(#cfWorkersLinearGradient-2)" opacity="0.7"></path>
        <path d="M68.8983814,8.8018855 L95.981106,57.7354448 L91.4878358,65.5525039 L67.6057968,25.1130719 C60.7120124,13.8491205 50.1866807,19.696527 37.0146283,42.4706363 L38.984281,39.0852958 L52.2794367,16.0034282 C55.4097226,10.5506927 60.0766443,6.14066572 65.6976958,3.32378893 L68.8368297,8.8018855 L68.8983814,8.8018855 Z" fill="url(#cfWorkersLinearGradient-3)" opacity="0.5"></path>
        <path d="M203.696488,16.0034282 L251.706773,99.4059097 C257.431076,109.254173 257.431076,121.564503 251.706773,131.412766 L203.696488,214.815248 C197.982679,224.711861 187.425867,230.811352 175.998247,230.818676 L127.987962,230.818676 L187.69306,123.164845 C190.366116,118.339998 190.366116,112.478677 187.69306,107.65383 L127.987962,0 L175.998247,0 C187.425867,0.00732404312 197.982679,6.10681526 203.696488,16.0034282 L203.696488,16.0034282 Z" fill="url(#cfWorkersLinearGradient-4)"></path>
        <path d="M173.536181,230.449366 L126.141413,230.880227 L183.507548,122.672432 C186.111867,117.786429 186.111867,111.924318 183.507548,107.038314 L126.141413,0 L136.974503,0 L197.172013,106.545901 C200.074507,111.667339 200.051094,117.942106 197.110462,123.041742 C184.154772,145.558461 171.290373,168.127584 158.517579,190.748554 C146.822766,211.306804 151.870001,224.540408 173.536181,230.449366 L173.536181,230.449366 Z" fill="url(#cfWorkersLinearGradient-5)"></path>
        <path d="M79.9776778,230.818676 C75.0535461,230.818676 70.1294143,229.649195 65.820799,227.556439 L125.033483,120.764331 C126.880033,117.440542 126.880033,113.378134 125.033483,110.054345 L65.820799,3.32378893 C70.2222355,1.14434147 75.066203,0.00706214019 79.9776778,0 L127.987962,0 L187.69306,107.65383 C190.366116,112.478677 190.366116,118.339998 187.69306,123.164845 L127.987962,230.818676 L79.9776778,230.818676 Z" fill="url(#cfWorkersLinearGradient-6)"></path>
        <path d="M183.507548,110.054345 L122.448314,0 L127.987962,0 L187.69306,107.65383 C190.366116,112.478677 190.366116,118.339998 187.69306,123.164845 L127.987962,230.818676 L122.448314,230.818676 L183.507548,120.764331 C185.354097,117.440542 185.354097,113.378134 183.507548,110.054345 Z" fill="url(#cfWorkersLinearGradient-7)" opacity="0.6"></path>
        <path d="M125.033483,110.054345 L65.820799,3.32378893 C67.6673485,2.33896258 69.8832077,1.60034282 71.9759637,0.98482635 C85.0249129,24.4360038 104.290578,60.0128557 129.834512,107.65383 C132.507568,112.478677 132.507568,118.339998 129.834512,123.164845 L71.052689,229.587643 C68.959933,228.972126 67.8520034,228.541265 65.8823507,227.61799 L124.971932,120.825883 C126.818481,117.502094 126.818481,113.439685 124.971932,110.115896 L125.033483,110.054345 Z" fill="url(#cfWorkersLinearGradient-8)" opacity="0.6"></path>
    </g>
</svg>

<?xml version="1.0" encoding="UTF-8"?>
<svg width="256" height="231" version="1.1" xmlns="http://www.w3.org/2000/svg" preserveAspectRatio="xMidYMid">
	<defs>
		<linearGradient x1="50%" y1="100%" x2="25.7%" y2="8.7%" id="a">
			<stop stop-color="#EB6F07" offset="0%"/>
			<stop stop-color="#FAB743" offset="100%"/>
		</linearGradient>
		<linearGradient x1="81%" y1="83.7%" x2="40.5%" y2="29.5%" id="b">
			<stop stop-color="#D96504" offset="0%"/>
			<stop stop-color="#D96504" stop-opacity="0" offset="100%"/>
		</linearGradient>
		<linearGradient x1="42%" y1="8.7%" x2="84%" y2="79.9%" id="c">
			<stop stop-color="#EB6F07" offset="0%"/>
			<stop stop-color="#EB720A" stop-opacity="0" offset="100%"/>
		</linearGradient>
		<linearGradient x1="50%" y1="100%" x2="25.7%" y2="8.7%" id="d">
			<stop stop-color="#EE6F05" offset="0%"/>
			<stop stop-color="#FAB743" offset="100%"/>
		</linearGradient>
		<linearGradient x1="-33.2%" y1="100%" x2="91.7%" y2="0%" id="e">
			<stop stop-color="#D96504" stop-opacity=".8" offset="0%"/>
			<stop stop-color="#D96504" stop-opacity=".2" offset="49.8%"/>
			<stop stop-color="#D96504" stop-opacity="0" offset="100%"/>
		</linearGradient>
		<linearGradient x1="50%" y1="100%" x2="25.7%" y2="8.7%" id="f">
			<stop stop-color="#FFA95F" offset="0%"/>
			<stop stop-color="#FFEBC8" offset="100%"/>
		</linearGradient>
		<linearGradient x1="8.1%" y1="1.1%" x2="96.5%" y2="48.8%" id="g">
			<stop stop-color="#FFF" stop-opacity=".5" offset="0%"/>
			<stop stop-color="#FFF" stop-opacity=".1" offset="100%"/>
		</linearGradient>
		<linearGradient x1="-13.7%" y1="104.2%" x2="100%" y2="46.2%" id="h">
			<stop stop-color="#FFF" stop-opacity=".5" offset="0%"/>
			<stop stop-color="#FFF" stop-opacity=".1" offset="100%"/>
		</linearGradient>
	</defs>
	<path d="m65.82 3.324 30.161 54.411-27.698 49.857a16.003 16.003 0 0 0 0 15.573l27.698 49.98-30.16 54.411a32.007 32.007 0 0 1-13.542-12.74L4.27 131.412a32.13 32.13 0 0 1 0-32.007l48.01-83.403a32.007 32.007 0 0 1 13.542-12.68Z" fill="url(#a)"/>
	<path d="M68.283 107.654a16.003 16.003 0 0 0 0 15.51l27.698 49.98-30.16 54.412a32.007 32.007 0 0 1-13.542-12.74L4.27 131.412c-3.816-6.586 17.542-14.465 64.014-23.698v-.061Z" fill="url(#b)" opacity=".7"/>
	<path d="m68.898 8.802 27.083 48.933-4.493 7.818-23.882-40.44c-6.894-11.264-17.42-5.416-30.591 17.358l1.97-3.386 13.294-23.082a32.007 32.007 0 0 1 13.419-12.68l3.139 5.479h.061Z" fill="url(#c)" opacity=".5"/>
	<path d="m203.696 16.003 48.01 83.403c5.725 9.848 5.725 22.159 0 32.007l-48.01 83.402a32.007 32.007 0 0 1-27.698 16.004h-48.01l59.705-107.654a16.003 16.003 0 0 0 0-15.511L127.988 0h48.01a32.007 32.007 0 0 1 27.698 16.003Z" fill="url(#d)"/>
	<path d="m173.536 230.45-47.395.43 57.367-108.208a16.619 16.619 0 0 0 0-15.634L126.14 0h10.834l60.197 106.546a16.619 16.619 0 0 1-.062 16.496 9616.838 9616.838 0 0 0-38.592 67.707c-11.695 20.558-6.648 33.791 15.018 39.7Z" fill="url(#e)"/>
	<path d="M79.978 230.819c-4.924 0-9.849-1.17-14.157-3.263l59.212-106.792a11.045 11.045 0 0 0 0-10.71L65.821 3.324A32.007 32.007 0 0 1 79.978 0h48.01l59.705 107.654a16.003 16.003 0 0 1 0 15.51L127.988 230.82h-48.01Z" fill="url(#f)"/>
	<path d="M183.508 110.054 122.448 0h5.54l59.705 107.654a16.003 16.003 0 0 1 0 15.51L127.988 230.82h-5.54l61.06-110.055a11.045 11.045 0 0 0 0-10.71Z" fill="url(#g)" opacity=".6"/>
	<path d="M125.033 110.054 65.821 3.324c1.846-.985 4.062-1.724 6.155-2.34 13.049 23.452 32.315 59.029 57.859 106.67a16.003 16.003 0 0 1 0 15.51L71.053 229.589c-2.093-.616-3.201-1.047-5.17-1.97l59.089-106.792a11.045 11.045 0 0 0 0-10.71l.061-.062Z" fill="url(#h)" opacity=".6"/>
</svg>
